skin/frontend/rwd/dhh/images/superhero.svg

<?xml version="1.0"?>
<svg xmlns="http://www.w3.org/2000/svg" height="512px" version="1.1" viewBox="-49 0 512 512" width="512px">
<g id="surface1">
<path d="M 402.757812 392.175781 L 323.847656 296.132812 L 337.527344 282.453125 C 346.429688 273.550781 351.335938 261.714844 351.335938 249.125 C 351.335938 236.535156 346.429688 224.695312 337.527344 215.796875 C 337.527344 215.792969 337.523438 215.792969 337.523438 215.789062 L 278.941406 157.210938 C 267.542969 145.808594 249.84375 135.945312 231.839844 130.089844 C 244.863281 116.261719 252.871094 97.65625 252.871094 77.207031 C 252.871094 34.636719 218.238281 0 175.667969 0 C 133.09375 0 98.460938 34.636719 98.460938 77.207031 C 98.460938 97.65625 106.464844 116.261719 119.492188 130.089844 C 101.488281 135.941406 83.789062 145.808594 72.390625 157.210938 L 13.804688 215.796875 C 4.902344 224.699219 0 236.535156 0 249.125 C 0 261.714844 4.902344 273.550781 13.804688 282.449219 L 45.9375 314.585938 C 54.839844 323.488281 66.675781 328.390625 79.265625 328.390625 C 85.222656 328.390625 91.011719 327.292969 96.398438 325.191406 L 96.398438 464.867188 C 96.398438 490.855469 117.542969 512 143.53125 512 C 155.941406 512 167.242188 507.183594 175.667969 499.320312 C 184.09375 507.183594 195.394531 512 207.800781 512 C 233.789062 512 254.933594 490.855469 254.933594 464.867188 L 254.933594 447.734375 L 376.5 447.734375 C 393.066406 447.734375 405.621094 441.277344 410.9375 430.023438 C 416.257812 418.773438 413.273438 404.976562 402.757812 392.175781 Z M 175.667969 30 C 201.695312 30 222.871094 51.175781 222.871094 77.207031 C 222.871094 103.234375 201.695312 124.414062 175.667969 124.414062 C 149.636719 124.414062 128.460938 103.234375 128.460938 77.207031 C 128.460938 51.175781 149.636719 30 175.667969 30 Z M 91.382812 293.371094 C 88.144531 296.609375 83.84375 298.390625 79.265625 298.390625 C 74.6875 298.390625 70.386719 296.609375 67.152344 293.371094 L 35.015625 261.234375 C 31.78125 258 30 253.699219 30 249.125 C 30 244.546875 31.78125 240.246094 35.015625 237.007812 L 93.605469 178.421875 C 106.390625 165.632812 133.476562 154.414062 151.566406 154.414062 L 199.765625 154.414062 C 217.855469 154.414062 244.9375 165.632812 257.726562 178.421875 L 316.308594 237.007812 C 316.3125 237.007812 316.3125 237.007812 316.3125 237.011719 C 319.550781 240.246094 321.332031 244.550781 321.332031 249.125 C 321.332031 253.699219 319.550781 258.003906 316.3125 261.238281 L 284.179688 293.371094 C 277.5 300.054688 266.632812 300.054688 259.949219 293.371094 C 256.734375 290.15625 254.953125 285.890625 254.933594 281.347656 L 254.933594 281.167969 C 254.953125 276.625 256.734375 272.359375 259.949219 269.144531 L 269.363281 259.730469 C 272.175781 256.917969 273.757812 253.101562 273.757812 249.125 C 273.757812 245.144531 272.175781 241.328125 269.363281 238.515625 L 250.539062 219.695312 C 246.246094 215.40625 239.800781 214.121094 234.191406 216.441406 C 228.585938 218.765625 224.933594 224.234375 224.933594 230.300781 L 224.933594 281.109375 C 224.933594 281.15625 224.933594 281.210938 224.933594 281.257812 C 224.933594 281.308594 224.933594 281.359375 224.933594 281.40625 L 224.933594 289.199219 L 126.398438 289.199219 L 126.398438 281.429688 C 126.398438 281.371094 126.398438 281.316406 126.398438 281.257812 C 126.398438 281.199219 126.398438 281.144531 126.398438 281.085938 L 126.398438 230.300781 C 126.398438 224.234375 122.742188 218.765625 117.140625 216.441406 C 111.535156 214.121094 105.082031 215.402344 100.792969 219.691406 L 81.96875 238.515625 C 79.15625 241.328125 77.574219 245.144531 77.574219 249.121094 C 77.574219 253.101562 79.15625 256.917969 81.96875 259.730469 L 91.382812 269.144531 C 94.59375 272.355469 96.371094 276.617188 96.398438 281.152344 L 96.398438 281.359375 C 96.371094 285.898438 94.59375 290.160156 91.382812 293.371094 Z M 224.933594 464.867188 C 224.933594 474.3125 217.246094 482 207.800781 482 C 198.351562 482 190.667969 474.316406 190.667969 464.867188 L 190.667969 368.46875 C 190.667969 360.183594 183.949219 353.46875 175.667969 353.46875 C 167.382812 353.46875 160.667969 360.183594 160.667969 368.46875 L 160.667969 464.867188 C 160.667969 474.3125 152.980469 482 143.53125 482 C 134.085938 482 126.398438 474.316406 126.398438 464.867188 L 126.398438 319.199219 L 224.933594 319.199219 Z M 376.5 417.734375 L 254.933594 417.734375 L 254.933594 325.164062 C 270.636719 331.265625 288.976562 328.644531 302.417969 317.308594 L 379.578125 411.222656 C 381.71875 413.828125 382.703125 415.730469 383.15625 416.894531 C 381.96875 417.285156 379.871094 417.734375 376.5 417.734375 Z M 376.5 417.734375 " style=" fill-rule:nonzero;fill-opacity:1;" stroke="#595959" fill="#595959"/>
</g>
</svg>

<?xml version="1.0" encoding="UTF-8" standalone="no"?>
<svg viewBox="-49 0 512 512" width="512px" xmlns="http://www.w3.org/2000/svg" version="1.1" height="512px">
 <g id="surface1">
  <path d="m402.76 392.18l-78.91-96.05 13.68-13.68c8.9-8.9 13.81-20.74 13.81-33.33 0-12.58-4.91-24.42-13.81-33.32 0-0.01-0.01-0.01-0.01-0.01l-58.58-58.58c-11.4-11.4-29.1-21.26-47.1-27.12 13.02-13.83 21.03-32.434 21.03-52.883 0-42.57-34.63-77.207-77.2-77.207-42.58 0-77.209 34.637-77.209 77.207 0 20.449 7.999 39.053 21.029 52.883-18 5.85-35.701 15.72-47.099 27.12l-58.586 58.59c-8.9027 8.9-13.805 20.74-13.805 33.32 0 12.59 4.9023 24.43 13.805 33.33l32.133 32.14c8.902 8.9 20.738 13.8 33.328 13.8 5.957 0 11.746-1.1 17.132-3.2v139.68c0 25.99 21.142 47.13 47.132 47.13 12.41 0 23.71-4.82 32.14-12.68 8.42 7.86 19.72 12.68 32.13 12.68 25.99 0 47.13-21.14 47.13-47.13v-17.14h121.57c16.57 0 29.12-6.45 34.44-17.71 5.32-11.25 2.33-25.04-8.18-37.84zm-227.09-362.18c26.03 0 47.2 21.176 47.2 47.207 0 26.023-21.17 47.203-47.2 47.203s-47.21-21.18-47.21-47.203c0-26.031 21.18-47.207 47.21-47.207zm-84.287 263.37c-3.238 3.24-7.539 5.02-12.117 5.02s-8.879-1.78-12.114-5.02l-32.136-32.14c-3.235-3.23-5.016-7.53-5.016-12.11 0-4.57 1.781-8.87 5.016-12.11l58.589-58.59c12.785-12.79 39.875-24.01 57.965-24.01h48.2c18.09 0 45.17 11.22 57.96 24.01l58.58 58.59c3.24 3.24 5.02 7.54 5.02 12.11 0 4.58-1.78 8.88-5.02 12.12l-32.13 32.13c-6.68 6.68-17.55 6.68-24.23 0-3.22-3.21-5-7.48-5.02-12.02v-0.18c0.02-4.55 1.8-8.81 5.02-12.03l9.41-9.41c2.82-2.81 4.4-6.63 4.4-10.61s-1.58-7.79-4.4-10.6l-18.82-18.82c-4.29-4.29-10.74-5.58-16.35-3.26-5.6 2.33-9.26 7.79-9.26 13.86v50.81 0.15 0.15 7.79h-98.53v-7.77-0.17-0.17-50.79c0-6.07-3.66-11.53-9.26-13.86-5.6-2.32-12.06-1.04-16.35 3.25l-18.821 18.83c-2.813 2.81-4.395 6.62-4.395 10.6s1.582 7.8 4.395 10.61l9.414 9.41c3.211 3.22 4.988 7.48 5.015 12.01v0.21c-0.027 4.54-1.804 8.8-5.015 12.01zm133.55 171.5c0 9.44-7.68 17.13-17.13 17.13s-17.13-7.68-17.13-17.13v-96.4c0-8.29-6.72-15-15-15-8.29 0-15 6.71-15 15v96.4c0 9.44-7.69 17.13-17.14 17.13-9.44 0-17.13-7.68-17.13-17.13v-145.67h98.53zm151.57-47.14h-121.57v-92.57c15.71 6.11 34.05 3.48 47.49-7.85l77.16 93.91c2.14 2.61 3.12 4.51 3.58 5.67-1.19 0.4-3.29 0.84-6.66 0.84z" stroke="#595959" fill="#595959"/>
 </g>
</svg>
